X:56
T: DER MAI IST NICHT IN BLUETHEN KARG
N: Z0057
O: Europa, Mitteleuropa, Deutschland, Niederrhein
N: Modulation, wenn alle einsetzen (T.11)
R: Sagen - Lied, Romanze
M: 3/8
L: 1/16
K: D
E2 | A4B2 | =c4d2 | B4=c2 | A4
A2 | ^G2A2B2 | A4
B2 | =c4d2 | B2B2=c2 | A4^G2 | A4
G2 | =FED2F2 | EDC2
C2 | D2E2=F2 | G4A2 | E4=FE | D4

@@@ Tune index: 9814
